svg/set/.alt/STAR/S.svg

<?xml version="1.0" encoding="UTF-8" standalone="no"?>
<svg
   version="1.1"
   viewBox="0 0 95.809044 41.248576"
   height="41.248577"
   width="95.809044"
   id="svg4"
   xmlns:xlink="http://www.w3.org/1999/xlink"
   xmlns="http://www.w3.org/2000/svg"
   xmlns:svg="http://www.w3.org/2000/svg">
  <defs
     id="defs4" />
  <linearGradient
     id="linearGradient8179">
    <stop
       offset="0"
       style="stop-color:#d2a300"
       id="stop1" />
    <stop
       style="stop-color:#b5271c"
       offset="0.42973638"
       id="stop2" />
    <stop
       offset="1"
       style="stop-color:#a21a12"
       id="stop3" />
  </linearGradient>
  <linearGradient
     gradientTransform="matrix(1.0267461,0,0,1.0267461,-1.2563325,31.064343)"
     spreadMethod="reflect"
     gradientUnits="userSpaceOnUse"
     y2="24.33419"
     x2="29.193537"
     y1="47.024551"
     x1="27.129902"
     id="linearGradient8185"
     xlink:href="#linearGradient8179" />
  <g
     transform="translate(-1.9302379,-57.326859)"
     id="layer6">
    <path
       d="M 20.135302,80.389509 4.2212222,85.802241 C 2.2242829,86.481444 1.1478788,83.289621 2.6006439,82.625908 L 18.771713,74.990204 8.8560761,67.586941 C 7.5660608,66.623783 9.3849471,64.38779 10.800771,65.091249 l 10.177231,5.056205 -2.268809,-9.496589 c -0.404433,-1.692842 2.636898,-2.323999 3.370803,-0.583409 L 25.742503,68.753757 31.058,58.317233 c 1.061163,-2.083506 3.736464,-0.493897 3.143921,1.231639 l -2.949451,8.589064 c 0,0 10.865134,-5.672023 22.493627,-5.672023 17.909194,0 39.24079,10.740038 43.911437,29.889979 0.631653,2.589816 -2.581925,2.684714 -3.299744,0.933421 -8.865407,-21.629329 -27.883432,-25.44308 -40.190342,-25.44308 -6.518145,0 -14.671319,3.521739 -14.671319,3.521739 l 7.832477,-0.604698 c 1.541746,-0.119029 2.81926,2.610093 0.453763,3.143921 l -15.654787,3.532861 10.079997,7.811188 c 1.899628,1.472059 0.528103,4.033629 -1.685401,2.771188 l -10.598583,-6.044755 3.079099,12.02469 c 0.508531,1.985952 -2.238595,2.565363 -2.981864,0.810289 L 24.997037,82.950023 17.898904,97.535228 c -0.936454,1.924222 -3.80945,1.029375 -2.981864,-1.45852 z"
       style="stroke-width:1px"
       id="path3" />
    <path
       d="M 21.755881,78.898577 4.5777495,84.603013 C 3.1478293,85.077854 2.9581942,83.6107 3.8322834,83.209315 L 20.91318,75.365716 9.9904811,67.230413 c -0.936099,-0.697214 -0.10687,-1.320705 0.7454669,-0.907523 l 11.700575,5.672023 -2.722571,-10.98752 c -0.292304,-1.179652 1.061322,-1.118215 1.426109,-0.291706 l 4.634854,10.501349 6.019058,-11.879654 c 0.52717,-1.040461 1.763735,-0.807844 1.307584,0.528079 l -3.599313,10.541285 c 0,0 9.740095,-6.917089 25.054142,-6.871251 13.159656,0.03939 35.434892,7.255748 42.459154,28.878705 0.36518,1.124161 -1.101612,1.724682 -1.62058,0.421351 C 88.817213,76.316291 74.336217,66.963255 54.686032,67.100766 43.155859,67.181455 33.235918,73.028003 33.235918,73.028003 l 13.636471,-1.352187 c 1.722686,-0.170821 1.275744,1.228241 0.320858,1.443861 l -17.051318,3.850298 11.688404,9.052784 c 0.801835,0.621029 0.167498,1.729673 -0.637785,1.268379 L 27.895922,79.674352 32.31918,93.92962 c 0.286058,0.921907 -1.023362,1.641235 -1.60429,0.275022 L 24.916524,80.56817 17.238848,96.886099 c -0.458331,0.974126 -1.83523,0.689606 -1.398024,-0.59588 z"
       style="fill:url(#linearGradient8185);stroke-width:1px"
       id="path4" />
  </g>
</svg>

<?xml version="1.0" encoding="UTF-8" standalone="no"?>
<svg xmlns="http://www.w3.org/2000/svg" xmlns:xlink="http://www.w3.org/1999/xlink" version="1.1" viewBox="0 0 97.829933 43.248576" height="43.248577" width="97.829933">
  <linearGradient id="linearGradient8179">
    <stop offset="0" style="stop-color:#d2a300"/>
    <stop style="stop-color:#b5271c" offset="0.42973638"/>
    <stop offset="1" style="stop-color:#a21a12"/>
  </linearGradient>
  <linearGradient gradientTransform="matrix(1.0267461,0,0,1.0267461,-1.2563325,31.064343)" spreadMethod="reflect" gradientUnits="userSpaceOnUse" y2="24.33419" x2="29.193537" y1="47.024551" x1="27.129902" id="linearGradient8185" xlink:href="#linearGradient8179"/>
  <g transform="translate(-0.93023795,-56.326859)" id="layer6">
    <path d="M 20.135302,80.389509 4.2212222,85.802241 C 2.2242829,86.481444 1.1478788,83.289621 2.6006439,82.625908 L 18.771713,74.990204 8.8560761,67.586941 C 7.5660608,66.623783 9.3849471,64.38779 10.800771,65.091249 L 20.978002,70.147454 18.709193,60.650865 C 18.30476,58.958023 21.346091,58.326866 22.079996,60.067456 L 25.742503,68.753757 31.058,58.317233 C 32.119163,56.233727 34.794464,57.823336 34.201921,59.548872 L 31.25247,68.137936 C 31.25247,68.137936 42.117604,62.465913 53.746097,62.465913 71.655291,62.465913 92.986887,73.205951 97.657534,92.355892 98.289187,94.945708 95.075609,95.040606 94.35779,93.289313 85.492383,71.659984 66.474358,67.846233 54.167448,67.846233 47.649303,67.846233 39.496129,71.367972 39.496129,71.367972 L 47.328606,70.763274 C 48.870352,70.644245 50.147866,73.373367 47.782369,73.907195 L 32.127582,77.440056 42.207579,85.251244 C 44.107207,86.723303 42.735682,89.284873 40.522178,88.022432 L 29.923595,81.977677 33.002694,94.002367 C 33.511225,95.988319 30.764099,96.56773 30.02083,94.812656 L 24.997037,82.950023 17.898904,97.535228 C 16.96245,99.45945 14.089454,98.564603 14.91704,96.076708 Z" style="stroke-width:1px"/>
    <path d="M 21.755881,78.898577 4.5777495,84.603013 C 3.1478293,85.077854 2.9581942,83.6107 3.8322834,83.209315 L 20.91318,75.365716 9.9904811,67.230413 C 9.0543821,66.533199 9.8836111,65.909708 10.735948,66.32289 L 22.436523,71.994913 19.713952,61.007393 C 19.421648,59.827741 20.775274,59.889178 21.140061,60.715687 L 25.774915,71.217036 31.793973,59.337382 C 32.321143,58.296921 33.557708,58.529538 33.101557,59.865461 L 29.502244,70.406746 C 29.502244,70.406746 39.242339,63.489657 54.556386,63.535495 67.716042,63.574883 89.991278,70.791243 97.01554,92.4142 97.38072,93.538361 95.913928,94.138882 95.39496,92.835551 88.817213,76.316291 74.336217,66.963255 54.686032,67.100766 43.155859,67.181455 33.235918,73.028003 33.235918,73.028003 L 46.872389,71.675816 C 48.595075,71.504995 48.148133,72.904057 47.193247,73.119677 L 30.141929,76.969975 41.830333,86.022759 C 42.632168,86.643788 41.997831,87.752432 41.192548,87.291138 L 27.895922,79.674352 32.31918,93.92962 C 32.605238,94.851527 31.295818,95.570855 30.71489,94.204642 L 24.916524,80.56817 17.238848,96.886099 C 16.780517,97.860225 15.403618,97.575705 15.840824,96.290219 Z" style="fill:url(#linearGradient8185);stroke-width:1px"/>
  </g>
</svg>
